X:1
T:Title
%%score ( 1 2 3 ) ( 4 5 )
L:1/8
Q:1/4=75
M:4/4
K:Db
V:1 treble nm="Strings 1, Treble"
V:2 treble 
V:3 treble 
V:4 bass nm="Strings 1, Bass"
V:5 bass 
V:1
 z4 z FED | A4 z2 d2 | d2 A4 z2 | A4 z4 | F6 z2 | A4 z2 d2 | d2 A4 z2 | c4 z4 | A6 z2 | d6 z2 | %10
w: 1.~There~ is~ a~|song~ tire~|sing ing,~|song~|rings;~|vine,~ strong~|change less,~|world~|bring.~||
 B6 z2 | [Gd]<.[Gc] z [Gc] [Gc][GB] [CE]>[C_F] | [DF]4- [DF][EA] [FB]>[Gc] | d6 z2 | B6 z2 | %15
w: |||||
 [Ad]<.[FA] z [DF] [CF][CE] [CG]>[Q:1/4=56][CF][Q:1/4=74][Q:1/4=73][Q:1/4=72][Q:1/4=71][Q:1/4=70][Q:1/4=68][Q:1/4=67][Q:1/4=66][Q:1/4=65][Q:1/4=64][Q:1/4=63][Q:1/4=62][Q:1/4=61][Q:1/4=60][Q:1/4=59][Q:1/4=58][Q:1/4=56][Q:1/4=12] | %16
w: |
 D6 z2 |] %17
w: |
V:2
 x8 | z [A,DF][A,DF][A,DFA] B[B,DGB] [DGB]B/B/ | z [DF][DF][DF] [DF][DFA][DFc][DFB] | %3
w: |* * I~ * er~ * * of~|* * * * It~ * a~|
 z [CG][CG][CGA] [CGA][_C=D][=CE][A,C_F] | z [A,D][A,D][A,D] [A,D]FED | %5
w: * * which~ * the~ ag es~|* * * * Of~ * di|
 z [A,DF][A,DF][A,DFA] B[B,DGB] [DGB]B/B/ | z [DF][DF][DF] [DF][DFA][D_FA][DFB] | %7
w: * * so~ * and~ * * and~|* * * * Naught~ * this~|
 z [CE][CE][CE] [_C=DF][B,_D=G] [EGc]>[DGB] | [CE]2 [DF]2 [EG][EA] [FB]>[Gc] | %9
w: * * such~ * and~ joy~ can~||
 F2 G2 A[Fd] [Fc]>[Fd] | G2 A2 G[GB][GB][Gd] | x8 | x8 | F2 G2 A[Af] [Ae]>[Ad] | %14
w: |||||
 G2 A2 GB[=Gd][Gd] | x8 | x8 |] %17
w: |||
V:3
 x8 | z4 z2 z [DG] | x8 | x8 | x8 | z4 z2 z [DG] | x8 | x8 | x8 | x8 | x8 | x8 | x8 | x8 | x8 | %15
 x8 | x8 |] %17
V:4
 z8 | [D,,D,]4 [G,,,G,,]4 | [D,,D,]8 | [A,,,A,,]4 [A,,,A,,]4 | [D,,D,]A,,B,,C, .D,2 z2 | %5
 z4 z G,,3 | [D,,D,]8 | [E,,E,]4 [E,,E,]4 | [A,,A,]4- [A,,A,][G,C] [F,D]>[E,A,] | %9
 [D,A,]2 [E,A,]2 [F,A,][D,A,] [D,D]>[D,D] | [G,D]2 [F,=D]2 [E,E][E,E][E,E][E,B,] | %11
 [A,,A,]<.[A,,A,] z [A,E] [A,E][A,C] [A,,A,]>[A,,A,] | A,A,B,F, A,[G,C] [F,D]>[E,A,] | %13
 [D,A,]2 [E,A,]2 [F,A,][D,D] [E,C]>[F,D] | [G,D]2 [F,=D]2 [E,E]B,[K:treble][=A,_F][A,F] | %15
 [A,F]<.[A,D] z A,[K:bass] [A,,A,][A,,G,] [A,,B,]>[A,,A,] | [D,F,]6 z2 |] %17
V:5
 x8 | x8 | x8 | x8 | x8 | x8 | x8 | x8 | x8 | x8 | x8 | x8 | D,6 z2 | x8 | x6[K:treble] x2 | %15
 x4[K:bass] x4 | x8 |] %17

